src/assets/icons/lightbulb_disabled.svg

<svg height="24px" viewBox="0 0 24 24" width="24px" fill="currentColor" xmlns="http://www.w3.org/2000/svg">
   <path
      d="M 12 2 C 8.14 2 5 5.14 5 9 C 5 10.371098 5.3952747 11.645383 6.0761719 12.722656 L 7.6933594 11.53125 C 7.2455511 10.773394 7 9.9022278 7 9 C 7 6.24 9.24 4 12 4 C 13.464268 4 14.78256 4.6306464 15.697266 5.6347656 L 17.310547 4.4453125 C 16.0258 2.9497157 14.121791 2 12 2 z M 18.994141 8.7949219 L 16.792969 10.417969 C 16.473796 11.489695 15.797203 12.439803 14.849609 13.099609 L 14 13.699219 L 14 16 L 10 16 L 10 15.421875 L 8 16.894531 L 8 17 C 8 17.55 8.45 18 9 18 L 15 18 C 15.55 18 16 17.55 16 17 L 16 14.740234 C 17.81 13.470234 19 11.38 19 9 C 19 8.9311625 18.996124 8.8632877 18.994141 8.7949219 z M 9 20 L 9 21 C 9 21.55 9.45 22 10 22 L 14 22 C 14.55 22 15 21.55 15 21 L 15 20 L 9 20 z " />
   <path
      d="M 5.0074622,14.910231 18.980639,4.6159443 a 0.39999999,0.39999999 8.6202667 0 1 0.559295,0.084788 L 20.402727,5.871864 A 0.40000001,0.40000001 98.620267 0 1 20.31794,6.4311592 L 6.3447632,16.725446 A 0.39999998,0.39999998 8.6202673 0 1 5.7854681,16.640659 L 4.9226743,15.469526 a 0.40000002,0.40000002 98.620267 0 1 0.084788,-0.559295 z" />
</svg>

<svg xmlns="http://www.w3.org/2000/svg" width="24" height="24" fill="currentColor" viewBox="0 0 24 24"><path d="M12 2C8.14 2 5 5.14 5 9a6.94 6.94 0 0 0 1.076 3.723l1.617-1.192A4.973 4.973 0 0 1 7 9a5.002 5.002 0 0 1 8.697-3.365l1.614-1.19A6.987 6.987 0 0 0 12 2zm6.994 6.795-2.201 1.623A5.011 5.011 0 0 1 14.85 13.1l-.85.6V16h-4v-.578l-2 1.473V17c0 .55.45 1 1 1h6c.55 0 1-.45 1-1v-2.26c1.81-1.27 3-3.36 3-5.74 0-.069-.004-.137-.006-.205zM9 20v1c0 .55.45 1 1 1h4c.55 0 1-.45 1-1v-1H9zM5.007 14.91 18.981 4.616a.4.4 8.62 0 1 .559.085l.863 1.17a.4.4 98.62 0 1-.085.56L6.345 16.725a.4.4 8.62 0 1-.56-.084l-.862-1.171a.4.4 98.62 0 1 .084-.56z"/></svg>
